assets/img/min/github-icon.svg

<?xml version="1.0" encoding="UTF-8" standalone="no"?>
<svg width="256px" height="250px" viewBox="0 0 256 250" version="1.1" xmlns="http://www.w3.org/2000/svg" xmlns:xlink="http://www.w3.org/1999/xlink" preserveAspectRatio="xMidYMid">
    <g>
        <path d="M128.00106,0 C57.3172926,0 0,57.3066942 0,128.00106 C0,184.555281 36.6761997,232.535542 87.534937,249.460899 C93.9320223,250.645779 96.280588,246.684165 96.280588,243.303333 C96.280588,240.251045 96.1618878,230.167899 96.106777,219.472176 C60.4967585,227.215235 52.9826207,204.369712 52.9826207,204.369712 C47.1599584,189.574598 38.770408,185.640538 38.770408,185.640538 C27.1568785,177.696113 39.6458206,177.859325 39.6458206,177.859325 C52.4993419,178.762293 59.267365,191.04987 59.267365,191.04987 C70.6837675,210.618423 89.2115753,204.961093 96.5158685,201.690482 C97.6647155,193.417512 100.981959,187.77078 104.642583,184.574357 C76.211799,181.33766 46.324819,170.362144 46.324819,121.315702 C46.324819,107.340889 51.3250588,95.9223682 59.5132437,86.9583937 C58.1842268,83.7344152 53.8029229,70.715562 60.7532354,53.0843636 C60.7532354,53.0843636 71.5019501,49.6441813 95.9626412,66.2049595 C106.172967,63.368876 117.123047,61.9465949 128.00106,61.8978432 C138.879073,61.9465949 149.837632,63.368876 160.067033,66.2049595 C184.49805,49.6441813 195.231926,53.0843636 195.231926,53.0843636 C202.199197,70.715562 197.815773,83.7344152 196.486756,86.9583937 C204.694018,95.9223682 209.660343,107.340889 209.660343,121.315702 C209.660343,170.478725 179.716133,181.303747 151.213281,184.472614 C155.80443,188.444828 159.895342,196.234518 159.895342,208.176593 C159.895342,225.303317 159.746968,239.087361 159.746968,243.303333 C159.746968,246.709601 162.05102,250.70089 168.53925,249.443941 C219.370432,232.499507 256,184.536204 256,128.00106 C256,57.3066942 198.691187,0 128.00106,0 Z M47.9405593,182.340212 C47.6586465,182.976105 46.6581745,183.166873 45.7467277,182.730227 C44.8183235,182.312656 44.2968914,181.445722 44.5978808,180.80771 C44.8734344,180.152739 45.876026,179.97045 46.8023103,180.409216 C47.7328342,180.826786 48.2627451,181.702199 47.9405593,182.340212 Z M54.2367892,187.958254 C53.6263318,188.524199 52.4329723,188.261363 51.6232682,187.366874 C50.7860088,186.474504 50.6291553,185.281144 51.2480912,184.70672 C51.8776254,184.140775 53.0349512,184.405731 53.8743302,185.298101 C54.7115892,186.201069 54.8748019,187.38595 54.2367892,187.958254 Z M58.5562413,195.146347 C57.7719732,195.691096 56.4895886,195.180261 55.6968417,194.042013 C54.9125733,192.903764 54.9125733,191.538713 55.713799,190.991845 C56.5086651,190.444977 57.7719732,190.936735 58.5753181,192.066505 C59.3574669,193.22383 59.3574669,194.58888 58.5562413,195.146347 Z M65.8613592,203.471174 C65.1597571,204.244846 63.6654083,204.03712 62.5716717,202.981538 C61.4524999,201.94927 61.1409122,200.484596 61.8446341,199.710926 C62.5547146,198.935137 64.0575422,199.15346 65.1597571,200.200564 C66.2704506,201.230712 66.6095936,202.705984 65.8613592,203.471174 Z M75.3025151,206.281542 C74.9930474,207.284134 73.553809,207.739857 72.1039724,207.313809 C70.6562556,206.875043 69.7087748,205.700761 70.0012857,204.687571 C70.302275,203.678621 71.7478721,203.20382 73.2083069,203.659543 C74.6539041,204.09619 75.6035048,205.261994 75.3025151,206.281542 Z M86.046947,207.473627 C86.0829806,208.529209 84.8535871,209.404622 83.3316829,209.4237 C81.8013,209.457614 80.563428,208.603398 80.5464708,207.564772 C80.5464708,206.498591 81.7483088,205.631657 83.2786917,205.606221 C84.8005962,205.576546 86.046947,206.424403 86.046947,207.473627 Z M96.6021471,207.069023 C96.7844366,208.099171 95.7267341,209.156872 94.215428,209.438785 C92.7295577,209.710099 91.3539086,209.074206 91.1652603,208.052538 C90.9808515,206.996955 92.0576306,205.939253 93.5413813,205.66582 C95.054807,205.402984 96.4092596,206.021919 96.6021471,207.069023 Z" fill="#161614"></path>
    </g>
</svg>

<svg width="256" height="250" viewBox="0 0 256 250" xmlns="http://www.w3.org/2000/svg" preserveAspectRatio="xMidYMid"><path d="M128.001 0C57.317 0 0 57.307 0 128.001c0 56.554 36.676 104.535 87.535 121.46 6.397 1.185 8.746-2.777 8.746-6.158 0-3.052-.12-13.135-.174-23.83-35.61 7.742-43.124-15.103-43.124-15.103-5.823-14.795-14.213-18.73-14.213-18.73-11.613-7.944.876-7.78.876-7.78 12.853.902 19.621 13.19 19.621 13.19 11.417 19.568 29.945 13.911 37.249 10.64 1.149-8.272 4.466-13.92 8.127-17.116-28.431-3.236-58.318-14.212-58.318-63.258 0-13.975 5-25.394 13.188-34.358-1.329-3.224-5.71-16.242 1.24-33.874 0 0 10.749-3.44 35.21 13.121 10.21-2.836 21.16-4.258 32.038-4.307 10.878.049 21.837 1.47 32.066 4.307 24.431-16.56 35.165-13.12 35.165-13.12 6.967 17.63 2.584 30.65 1.255 33.873 8.207 8.964 13.173 20.383 13.173 34.358 0 49.163-29.944 59.988-58.447 63.157 4.591 3.972 8.682 11.762 8.682 23.704 0 17.126-.148 30.91-.148 35.126 0 3.407 2.304 7.398 8.792 6.14C219.37 232.5 256 184.537 256 128.002 256 57.307 198.691 0 128.001 0zm-80.06 182.34c-.282.636-1.283.827-2.194.39-.929-.417-1.45-1.284-1.15-1.922.276-.655 1.279-.838 2.205-.399.93.418 1.46 1.293 1.139 1.931zm6.296 5.618c-.61.566-1.804.303-2.614-.591-.837-.892-.994-2.086-.375-2.66.63-.566 1.787-.301 2.626.591.838.903 1 2.088.363 2.66zm4.32 7.188c-.785.545-2.067.034-2.86-1.104-.784-1.138-.784-2.503.017-3.05.795-.547 2.058-.055 2.861 1.075.782 1.157.782 2.522-.019 3.08zm7.304 8.325c-.701.774-2.196.566-3.29-.49-1.119-1.032-1.43-2.496-.726-3.27.71-.776 2.213-.558 3.315.49 1.11 1.03 1.45 2.505.701 3.27zm9.442 2.81c-.31 1.003-1.75 1.459-3.199 1.033-1.448-.439-2.395-1.613-2.103-2.626.301-1.01 1.747-1.484 3.207-1.028 1.446.436 2.396 1.602 2.095 2.622zm10.744 1.193c.036 1.055-1.193 1.93-2.715 1.95-1.53.034-2.769-.82-2.786-1.86 0-1.065 1.202-1.932 2.733-1.958 1.522-.03 2.768.818 2.768 1.868zm10.555-.405c.182 1.03-.875 2.088-2.387 2.37-1.485.271-2.861-.365-3.05-1.386-.184-1.056.893-2.114 2.376-2.387 1.514-.263 2.868.356 3.061 1.403z" fill="#161614"/></svg>
